X: 1
T:Blarney Pilgrim  "	"
M:6/8
L:1/8
Q:80
C:Trad., arr. L Webster
S:Jig
K:HP
|: | {g}AB{G}A{g}ABd|
e{g}de{g}efg|
{a}fed{g}edB|  !
d{g}Be{g}dB{d}G|
{g}AB{G}A{g}ABd|
e{g}de{g}efg|  !
{a}fed{g}edB|
{g}ded{gdG}d3:| |:
| a{g}a{g}a{g}afd|  !
e{g}de{g}fdB|
a{g}a{g}a{g}afd|
e{g}ded{g}d{G}d|  !
a{g}a{g}a{g}afd|
e{g}de{g}fdB|
{g}fed{g}edB|  !
{g}ded{gdG}d3:| |:
| e{g}Ae{g}AfA|
{gef}e2A{g}efg|  !
{a}fed{g}edB|
d{g}Be{g}dB{d}G|
e{g}Ae{g}AfA|  !
{gef}e2A{g}efg|
{a}fed{g}edB|
{g}ded{gdG}d3:|  !
